images/流程图/u215_seg2.svg

<svg xmlns="http://www.w3.org/2000/svg" width="34" height="34" preserveAspectRatio="xMinYMid meet" viewBox="422 602 34 32"><defs><mask id="a" fill="#fff"><path fill-rule="evenodd" d="M366 604h34v28h-34Zm-30-3h122v34H336Z"/></mask></defs><path fill="none" stroke="#d9001b" stroke-width="2" d="M339 633v-10a5 5 0 0 1 5-5h95" mask="url(#a)"/><path fill="#d9001b" d="m431.6 626 9.4-8-9.4-8 3.6 8z" mask="url(#a)"/></svg>

﻿<?xml version="1.0" encoding="utf-8"?>
<svg version="1.1" xmlns:xlink="http://www.w3.org/1999/xlink" width="34px" height="34px" preserveAspectRatio="xMinYMid meet" viewBox="422 602  34 32" xmlns="http://www.w3.org/2000/svg">
  <defs>
    <mask fill="white" id="clip38">
      <path d="M 366 604  L 400 604  L 400 632  L 366 632  Z M 336 601  L 458 601  L 458 635  L 336 635  Z " fill-rule="evenodd" />
    </mask>
  </defs>
  <path d="M 339 633  L 339 623  A 5 5 0 0 1 344 618 L 439 618  " stroke-width="2" stroke="#d9001b" fill="none" mask="url(#clip38)" />
  <path d="M 431.6 626  L 441 618  L 431.6 610  L 435.2 618  L 431.6 626  Z " fill-rule="nonzero" fill="#d9001b" stroke="none" mask="url(#clip38)" />
</svg>
